static/assets/img/icons/theme/devices/gameboy.svg

<svg height="24" viewBox="0 0 24 24" width="24" xmlns="http://www.w3.org/2000/svg"><g fill="none" fill-rule="evenodd"><path d="m0 0h24v24h-24z" opacity="0"/><g fill="#000"><path d="m11 16v-6c0-.55228475.4477153-1 1-1s1 .44771525 1 1v6h6c1.1045695 0 2 .8954305 2 2v1c0 1.1045695-.8954305 2-2 2h-14c-1.1045695 0-2-.8954305-2-2v-1c0-1.1045695.8954305-2 2-2z" opacity=".3"/><circle cx="12" cy="7" r="3"/></g></g></svg>

<svg width="24px" height="24px" viewBox="0 0 24 24" version="1.1" xmlns="http://www.w3.org/2000/svg" xmlns:xlink="http://www.w3.org/1999/xlink">
    <title>Icon For Gameboy</title>
    <g stroke="none" stroke-width="1" fill="none" fill-rule="evenodd">
        <rect opacity="0" x="0" y="0" width="24" height="24"></rect>
        <path d="M11,16 L11,10 C11,9.44771525 11.4477153,9 12,9 C12.5522847,9 13,9.44771525 13,10 L13,16 L19,16 C20.1045695,16 21,16.8954305 21,18 L21,19 C21,20.1045695 20.1045695,21 19,21 L5,21 C3.8954305,21 3,20.1045695 3,19 L3,18 C3,16.8954305 3.8954305,16 5,16 L11,16 Z" fill="#000000" opacity="0.3"></path>
        <circle fill="#000000" cx="12" cy="7" r="3"></circle>
    </g>
</svg>
